src/assets/images/w12.svg

<svg xmlns="http://www.w3.org/2000/svg" width="600" height="600" fill="none"><path fill="#686762" fill-opacity=".8" d="M360 528.302h148v16.444H360v-16.444Z"/><path fill="#432614" d="M392.889 334.492h34.063v81.048h-34.063z"/><path fill="#A29081" d="M408.946 283.787h81.91v50.944h-81.91zM474.875 334.731h15.982v80.912h-15.982zM409.333 366.206h17.619v16.444h-17.619z"/><path fill="#7F7164" d="M409.333 399.095h17.619v16.445h-17.619v-16.445ZM409.333 349.762h17.619v16.444h-17.619v-16.444ZM392.964 415.643l16.369-.103v14.682h-16.369v-14.579ZM426.952 334.492h31.127v-17.619h32.278v17.619H475.11v95.73h-17.031v-80.46h-31.127v-15.27ZM392.964 283.787h15.982v50.944h-15.982z"/><path fill="#432614" d="M426.952 316.873h15.27v17.619h-15.27zM458.892 300.769h31.965v15.982h-31.965z"/><path fill="#F0A748" d="M442.222 316.873h16.444v17.619h-16.444z"/><path fill="#35200F" d="M392.964 429.628h15.982v98.892h-15.982z"/><path fill="#14181B" d="M392.889 528.302h17.619v16.444h-17.619v-16.444ZM457.492 528.302h17.619v16.444h-17.619v-16.444Z"/><path fill="#35200F" d="M457.893 429.628h16.981v98.892h-16.981z"/><path fill="#0D1D12" d="M376.444 349.762h16.444v16.444h-16.444v-16.444Z"/><path fill="#A04B2C" d="M424.603 154.778h17.619v16.444h-17.619v-16.444ZM424.603 185.318h17.619v98.666h-17.619v-98.666ZM457.893 184.895h16.982v98.892h-16.982v-98.892ZM458.667 154.778h16.444v16.444h-16.444v-16.444ZM376.444 201.762h16.444v16.444h-16.444v-16.444ZM392.889 171.222h16.444v16.445h-16.444v-16.445Z"/><path fill="#823217" d="M376.444 218.206h16.444v32.889h-16.444v-32.889ZM424.603 171.222h17.619v14.095h-17.619v-14.095ZM458.667 171.222h16.444v14.095h-16.444v-14.095ZM441.911 201.877h16.981v81.91h-16.981v-81.91ZM392.889 187.667h16.444v96.317h-16.444v-96.317Z"/><path fill="#0D1D12" d="M474.875 170.91h15.982v112.877h-15.982V170.91ZM409.333 154.778h15.27v129.206h-15.27V154.778Z"/><path fill="#E7CBBD" d="M424.603 89h51.682v49.921h-17.619v32.301h-16.444v-16.533h-17.619V89Z"/><path fill="#CDA998" d="M442.222 171.222h16.444v31.714h-16.444z"/><path fill="#3C2D0C" d="M424.603 89h51.682v16.444h-17.619v17.032h-16.444v17.032h-17.619V89Z"/><path fill="#E7CBBD" d="M360 415.54h16.444v15.27H360v-15.27Z"/><path fill="#A04B2C" d="M360 251.095h16.444v16.445H360v-16.445Z"/><path fill="#823217" d="M360 267.54h16.444v148H360v-148Z"/><path fill="#E7CBBD" d="M490.857 416.642h15.982v14.984h-15.982v-14.984Z"/><path fill="#823217" d="M490.857 251.822h15.982v164.82h-15.982v-164.82Z"/><path fill="#686762" fill-opacity=".8" d="M296 527H94v18h202z"/><path fill="#402B1A" d="M212 123h-17v17h17z"/><path fill="#513225" d="M209.5 128.5h-1v1h1v-1ZM205.5 128.5h-1v1h1v-1ZM207.5 126.5h-1v1h1v-1ZM207.5 130.5h-1v1h1v-1ZM203.5 126.5h-1v1h1v-1ZM204.5 131.5h-1v1h1v-1ZM209.5 133.5h-1v1h1v-1ZM206.5 133.5h-1v1h1v-1ZM203.5 134.5h-1v1h1v-1ZM199.5 126.5h-1v1h1v-1ZM196 126.5h-1v1h1v-1ZM201.5 128.5h-1v1h1v-1ZM198 128.5h-1v1h1v-1ZM200 130.5h-1v1h1v-1ZM201.5 132.5h-1v1h1v-1ZM197 131.5h-1v1h1v-1ZM199 133.5h-1v1h1v-1ZM200.5 135.5h-1v1h1v-1ZM199 137h-1v1h1v-1ZM196.5 136h-1v1h1v-1ZM203.5 137h-1v1h1v-1ZM206.5 136h-1v1h1v-1ZM208.5 137h-1v1h1v-1ZM211 139h-16v1h16z"/><path fill="#2F272B" d="M209 139h-1v1h1v-1ZM207.5 139h-1v1h1v-1ZM204.5 139h-1v1h1v-1ZM202.5 139h-1v1h1v-1ZM199.5 139h-1v1h1v-1ZM197 139h-1v1h1v-1Z"/><path fill="#E5C6A2" d="M212 106h-17v17h17z"/><path fill="#D66921" d="M262 56h-17v17h17z"/><path fill="#E27C19" d="M245 73h-17v33.5h17V73Z"/><path fill="#FB9632" d="M228 73h-17v17h17z"/><path fill="#D0A370" d="M245 123h-17v17h17z"/><path fill="#D66921" d="M245 140h-17v17h17z"/><path fill="#E5C6A2" d="M228 140h-16.5v17H228v-17Z"/><path fill="#D66921" d="M228 89.5h-33V106h17v34h16V89.5Z"/><path fill="#B14D0B" d="M245 106h-17v17h17z"/><path fill="#9B5F27" d="M262 157h-18v17h18z"/><path fill="#9B5F27" d="M279 173h-18v35h18z"/><path fill="#9B5F27" d="M262 189h-18v85h18v-85Z"/><path fill="#9B5F27" d="M245 206.202h-17V274h16l1-67.798Z"/><path fill="#B2743B" d="M244 157h-16v17h-17v-17h-16.5v17H178v100.5h50V208h16v-18.5h17.5V174H244v-17Z"/><path fill="#D0A370" d="M228 157h-17v17h17zM279 208h-17v16h17z"/><path fill="#3A2212" d="M262 274h-84v18h84z"/><path fill="#A7A6A6" d="M212 274h-17v17h17z"/><path fill="#5B1D00" d="M262 291h-84v168h17v-50h16.5V307.5h17V409H245v50h17V291Z"/><path fill="#722400" d="M245 307h-67v118h17l-1.5-99.5H228v84h17V307Z"/><path fill="#5B1D00" d="M245 375h-17v17h17z"/><path fill="#3A2212" d="M245 358h-17v17h17zM262 342h-17v16h17z"/><path fill="#3A2212" d="M279 291h-18v84h18z"/><path fill="#1B0F07" d="M262 458h-17v51h17zM195 459h-17v50h17z"/><path fill="#3A2212" d="M262 509h-17v36h17zM195 509h-17v36h17z"/><path fill="#E5C6A2" d="M296 224h-17v151h17z"/><path fill="#3A2212" d="M296 324h-17v34h17z"/><path fill="#D0A370" d="M178 224h-17v151h17z"/><path fill="#3A2212" d="M178 324h-17v34h17z"/><path fill="#E1E1E1" d="M108 429H90v18h18v-18ZM126 411h-18v18h18v-18ZM144 393h-18v18h18v-18Z"/><path fill="#3A2212" d="M161 375h-17v18h17z"/></svg>

<svg width="600" height="600" viewBox="0 0 600 600" fill="none" xmlns="http://www.w3.org/2000/svg">
<path d="M360 528.302H508V544.746H360V528.302Z" fill="#686762" fill-opacity="0.8"/>
<rect x="392.889" y="334.492" width="34.0635" height="81.0476" fill="#432614"/>
<rect x="408.946" y="283.787" width="81.9105" height="50.9443" fill="#A29081"/>
<rect x="474.875" y="334.731" width="15.9825" height="80.9116" fill="#A29081"/>
<rect x="409.333" y="366.206" width="17.619" height="16.4444" fill="#A29081"/>
<path d="M409.333 399.095H426.952V415.54H409.333V399.095Z" fill="#7F7164"/>
<path d="M409.333 349.762H426.952V366.206H409.333V349.762Z" fill="#7F7164"/>
<path d="M392.964 415.643L409.333 415.54V430.222H392.964V415.643Z" fill="#7F7164"/>
<path d="M426.952 334.492H458.079V316.873H490.357V334.492H475.11V430.222H458.079V349.762H426.952V334.492Z" fill="#7F7164"/>
<rect x="392.964" y="283.787" width="15.9825" height="50.9443" fill="#7F7164"/>
<rect x="426.952" y="316.873" width="15.2698" height="17.619" fill="#432614"/>
<rect x="458.892" y="300.769" width="31.9651" height="15.9825" fill="#432614"/>
<rect x="442.222" y="316.873" width="16.4444" height="17.619" fill="#F0A748"/>
<rect x="392.964" y="429.628" width="15.9825" height="98.8919" fill="#35200F"/>
<path d="M392.889 528.302H410.508V544.746H392.889V528.302Z" fill="#14181B"/>
<path d="M457.492 528.302H475.111V544.746H457.492V528.302Z" fill="#14181B"/>
<rect x="457.893" y="429.628" width="16.9814" height="98.8919" fill="#35200F"/>
<path d="M376.444 349.762H392.888V366.206H376.444V349.762Z" fill="#0D1D12"/>
<path d="M424.603 154.778H442.222V171.222H424.603V154.778Z" fill="#A04B2C"/>
<path d="M424.603 185.318H442.222V283.984H424.603V185.318Z" fill="#A04B2C"/>
<path d="M457.893 184.895H474.875V283.787H457.893V184.895Z" fill="#A04B2C"/>
<path d="M458.667 154.778H475.111V171.222H458.667V154.778Z" fill="#A04B2C"/>
<path d="M376.444 201.762H392.888V218.206H376.444V201.762Z" fill="#A04B2C"/>
<path d="M392.889 171.222H409.333V187.667H392.889V171.222Z" fill="#A04B2C"/>
<path d="M376.444 218.206H392.888V251.095H376.444V218.206Z" fill="#823217"/>
<path d="M424.603 171.222H442.222V185.317H424.603V171.222Z" fill="#823217"/>
<path d="M458.667 171.222H475.111V185.317H458.667V171.222Z" fill="#823217"/>
<path d="M441.911 201.877H458.892V283.787H441.911V201.877Z" fill="#823217"/>
<path d="M392.889 187.667H409.333V283.984H392.889V187.667Z" fill="#823217"/>
<path d="M474.875 170.91H490.857V283.787H474.875V170.91Z" fill="#0D1D12"/>
<path d="M409.333 154.778H424.603V283.984H409.333V154.778Z" fill="#0D1D12"/>
<path d="M424.603 89H476.285V138.921H466.301H458.666V171.222H442.222V154.689H424.603V89Z" fill="#E7CBBD"/>
<rect x="442.222" y="171.222" width="16.4444" height="31.7143" fill="#CDA998"/>
<path d="M424.603 89H476.285V105.444H458.666V122.476H442.222V139.508H424.603V89Z" fill="#3C2D0C"/>
<path d="M360 415.54H376.444V430.81H360V415.54Z" fill="#E7CBBD"/>
<path d="M360 251.095H376.444V267.54H360V251.095Z" fill="#A04B2C"/>
<path d="M360 267.54H376.444V415.54H360V267.54Z" fill="#823217"/>
<path d="M490.857 416.642H506.839V431.626H490.857V416.642Z" fill="#E7CBBD"/>
<path d="M490.857 251.822H506.839V416.642H490.857V251.822Z" fill="#823217"/>
<rect width="202" height="18" transform="matrix(-1 0 0 1 296 527)" fill="#686762" fill-opacity="0.8"/>
<rect width="17" height="17" transform="matrix(-1 0 0 1 212 123)" fill="#402B1A"/>
<path d="M209.5 128.5H208.5V129.5H209.5V128.5Z" fill="#513225"/>
<path d="M205.5 128.5H204.5V129.5H205.5V128.5Z" fill="#513225"/>
<path d="M207.5 126.5H206.5V127.5H207.5V126.5Z" fill="#513225"/>
<path d="M207.5 130.5H206.5V131.5H207.5V130.5Z" fill="#513225"/>
<path d="M203.5 126.5H202.5V127.5H203.5V126.5Z" fill="#513225"/>
<path d="M204.5 131.5H203.5V132.5H204.5V131.5Z" fill="#513225"/>
<path d="M209.5 133.5H208.5V134.5H209.5V133.5Z" fill="#513225"/>
<path d="M206.5 133.5H205.5V134.5H206.5V133.5Z" fill="#513225"/>
<path d="M203.5 134.5H202.5V135.5H203.5V134.5Z" fill="#513225"/>
<path d="M199.5 126.5H198.5V127.5H199.5V126.5Z" fill="#513225"/>
<path d="M196 126.5H195V127.5H196V126.5Z" fill="#513225"/>
<path d="M201.5 128.5H200.5V129.5H201.5V128.5Z" fill="#513225"/>
<path d="M198 128.5H197V129.5H198V128.5Z" fill="#513225"/>
<path d="M200 130.5H199V131.5H200V130.5Z" fill="#513225"/>
<path d="M201.5 132.5H200.5V133.5H201.5V132.5Z" fill="#513225"/>
<path d="M197 131.5H196V132.5H197V131.5Z" fill="#513225"/>
<path d="M199 133.5H198V134.5H199V133.5Z" fill="#513225"/>
<path d="M200.5 135.5H199.5V136.5H200.5V135.5Z" fill="#513225"/>
<path d="M199 137H198V138H199V137Z" fill="#513225"/>
<path d="M196.5 136H195.5V137H196.5V136Z" fill="#513225"/>
<path d="M203.5 137H202.5V138H203.5V137Z" fill="#513225"/>
<path d="M206.5 136H205.5V137H206.5V136Z" fill="#513225"/>
<path d="M208.5 137H207.5V138H208.5V137Z" fill="#513225"/>
<rect width="16" height="1" transform="matrix(-1 0 0 1 211 139)" fill="#513225"/>
<path d="M209 139H208V140H209V139Z" fill="#2F272B"/>
<path d="M207.5 139H206.5V140H207.5V139Z" fill="#2F272B"/>
<path d="M204.5 139H203.5V140H204.5V139Z" fill="#2F272B"/>
<path d="M202.5 139H201.5V140H202.5V139Z" fill="#2F272B"/>
<path d="M199.5 139H198.5V140H199.5V139Z" fill="#2F272B"/>
<path d="M197 139H196V140H197V139Z" fill="#2F272B"/>
<rect width="17" height="17" transform="matrix(-1 0 0 1 212 106)" fill="#E5C6A2"/>
<rect width="17" height="17" transform="matrix(-1 0 0 1 262 56)" fill="#D66921"/>
<path d="M245 73H228V106.5H245V73Z" fill="#E27C19"/>
<rect width="17" height="17" transform="matrix(-1 0 0 1 228 73)" fill="#FB9632"/>
<rect width="17" height="17" transform="matrix(-1 0 0 1 245 123)" fill="#D0A370"/>
<rect width="17" height="17" transform="matrix(-1 0 0 1 245 140)" fill="#D66921"/>
<path d="M228 140H211.5V157H228V140Z" fill="#E5C6A2"/>
<path d="M228 89.5H212H195V106H212V140H228V89.5Z" fill="#D66921"/>
<rect width="17" height="17" transform="matrix(-1 0 0 1 245 106)" fill="#B14D0B"/>
<rect width="18" height="17" transform="matrix(-1 0 0 1 262 157)" fill="#9B5F27"/>
<rect width="18" height="35" transform="matrix(-1 0 0 1 279 173)" fill="#9B5F27"/>
<path d="M262 189H244V274H262V189Z" fill="#9B5F27"/>
<path d="M245 206.202H228V274H244L245 206.202Z" fill="#9B5F27"/>
<path d="M244 157H228V174H211V157H194.5V174H178V274.5H228V208H244V189.5H261.5V174H244V157Z" fill="#B2743B"/>
<rect width="17" height="17" transform="matrix(-1 0 0 1 228 157)" fill="#D0A370"/>
<rect width="17" height="16" transform="matrix(-1 0 0 1 279 208)" fill="#D0A370"/>
<rect width="84" height="18" transform="matrix(-1 0 0 1 262 274)" fill="#3A2212"/>
<rect width="17" height="17" transform="matrix(-1 0 0 1 212 274)" fill="#A7A6A6"/>
<path d="M262 291H178V459H195V409H211.5V307.5H228.5V409H245V459H262V291Z" fill="#5B1D00"/>
<path d="M245 307H178V425H195L193.5 325.5H228V409.5H245V307Z" fill="#722400"/>
<rect width="17" height="17" transform="matrix(-1 0 0 1 245 375)" fill="#5B1D00"/>
<rect width="17" height="17" transform="matrix(-1 0 0 1 245 358)" fill="#3A2212"/>
<rect width="17" height="16" transform="matrix(-1 0 0 1 262 342)" fill="#3A2212"/>
<rect width="18" height="84" transform="matrix(-1 0 0 1 279 291)" fill="#3A2212"/>
<rect width="17" height="51" transform="matrix(-1 0 0 1 262 458)" fill="#1B0F07"/>
<rect width="17" height="50" transform="matrix(-1 0 0 1 195 459)" fill="#1B0F07"/>
<rect width="17" height="36" transform="matrix(-1 0 0 1 262 509)" fill="#3A2212"/>
<rect width="17" height="36" transform="matrix(-1 0 0 1 195 509)" fill="#3A2212"/>
<rect width="17" height="151" transform="matrix(-1 0 0 1 296 224)" fill="#E5C6A2"/>
<rect width="17" height="34" transform="matrix(-1 0 0 1 296 324)" fill="#3A2212"/>
<rect width="17" height="151" transform="matrix(-1 0 0 1 178 224)" fill="#D0A370"/>
<rect width="17" height="34" transform="matrix(-1 0 0 1 178 324)" fill="#3A2212"/>
<path d="M108 429H90V447H108V429Z" fill="#E1E1E1"/>
<path d="M126 411H108V429H126V411Z" fill="#E1E1E1"/>
<path d="M144 393H126V411H144V393Z" fill="#E1E1E1"/>
<rect width="17" height="18" transform="matrix(-1 0 0 1 161 375)" fill="#3A2212"/>
</svg>
